X:1
T:Vor der Alphütte. Ruggusserli (voc). C-Dur
S:Naturjodel rund um den Saentis (www.roothuus-gonten.ch)
%%partsbox
%P:
Q:1/4=54
R:Naturjodel
M:3/2
L:1/8
K:C %  (%%MIDI gchordo) 
[P:A] C>E G3eG3fd2 | "C"C4 {/E} "_  glissando"G2   e2  c>B A2 | "G7"B,4 G2 "_  gliss."f2B2G2 | "C"C>E G2 {/c}e>d c4  | 
w: jo-di do u jo u rü  ja (di)jo u dü-rü dü   dja dja u-rü ri  dja di jo (u)u-u dü 
"C"C>E G3e"G7"G3fd2 | "C"C4 {/E} "_  gliss." G2   e2  c>B A2 | "G7"B,4 G3e G>f d2 | "C"c8z4 |] 
w: jo-di do u jo u rü   ja (di)jo u dü-rü dü  dja jo u jo-u ru  ü 
[P:B] e2 c>B c2 EG d G2 f | "C"e2 c>B c2E2G2 {/e}g>^f | "G7"d2 B>A B2D2G2f2 | "C"e2 c>B c2E2G4 | 
w: u rü-dü rü jo lo-u-jo u  u dü-rü dü jo jo (u)u-u   du dü-rü dü jo jo u  u dü-rü dü jo jo
"C"e2 c>B c2 EG "G7"d G2 f | "C"e2 c>B c2E2G2 {/e}g>^f | "G7"d2 B>A B2D2 "_   gliss."G2e2 | "C"c8z4 |] 
w: u rü-dü rü jo lo-u-jo u u dü-rü dü jo jo (u)u-u  du dü-rü dü jo jo-u- ü
M:4/4
[P:C] GEGA "D7"^FD"G7"=FG | "C"EC E2G2 EG | "G7"DB, D2G2 ^FG  | "C"EC E2G4 | 
w: jo-o do-o do-a do-o  do-a do djo ro-o  do a do djo-o-o  do a do djo 
"C"GEGA "D7"^FD"G7"=FG | "C"EC E2G2 EG | "G7"DB, D2G2 ^F2 | "C"C8 |] 
w: jo-o do-o do-a do-o  do-a do djo ro-o  do a do o-o   djo
[P:D] "G7"DB, D2G2 FG | "C"EC E2G2 EG | "G7"DB, D2G2 ^FG | "C"EC E2G4 | 
w:jo-a do djo ho-o  do-o do djo o-o  do-o do jo ho-o  do-a o djo 
"C"ECEG "D7"^FD"G7"=FG | "C"EC E2G2 EG | "G7"DB, D2G2^F2 | "C"C8 |] 
w:jo-o do-o do-a do-o  do-a do djo  ro-o  do-a djo o-o  djo
W:
%W:Parts: ABCD
W: trad. AI
W: Zwei Jodlerinnen: Geschw. Inauen mit Streichmusik Edelweiss, Trogen
W:Schellackplatte "Vor der Alphütte" His Master's Voice H.E. 33 (1937)
W:
W:Die 2. Stimme ist flächig geführt (Gradhebe)
W:
W:Weitere Quellen:
W:SCH068A "Appenzeller Zeuerli" Tell Record 26227 (1953) 
W:  - Geschw. Knechtle, Streichm. Fransepp Inauen
W:LP044 "Heeweh noch em Appezöll" EMI Records E 062-33799 (1975) 
W:   - Geschw. Dörig, Streichm. Alder
W:LP050 "Dem Alpstee zue" Phillips 6326 034 (1973) 
W:  - Walter Mittelholzer, Streichm. Alder
W:CD "Säntislüüchte" aare records ar 50039 (1999) JK Teufen
W:CD502 "Frauengesang" ZAV 2010
W:Notiert in: Sammlung Johann Manser, Appenzell (H509) ; 
W: - Nachlass Emil Fürstenauer, Gais
W:
W:https://www.roothuus-gonten.ch/mediendateien/jodel/pdf/Vor der Alphütte.pdf
W: *AUDIO*:  www.roothuus-gonten.ch/cms/index.php/de/naturjodel-rund-um-den-saentis
% © 2015 ROOTHUUS GONTEN. #531 (SCH005B)
% Feb. 20 2019

